static/images/onboarding/safe-illustration.svg

<svg width="360" height="360" viewBox="0 0 360 360" fill="none" xmlns="http://www.w3.org/2000/svg">
<path opacity="0.5" d="M211.956 314.769C211.956 320.99 220.043 319.201 229.996 319.201C239.949 319.201 248.036 320.99 248.036 314.769C248.036 308.548 238.705 303.961 228.752 303.961C218.799 303.961 211.956 308.548 211.956 314.769Z" fill="#FFAB19"/>
<path opacity="0.5" d="M131.302 90.4223C146.95 85.9447 157.624 75.2862 155.143 66.6159C152.662 57.9455 137.965 54.5466 122.317 59.0242C106.67 63.5018 95.9956 74.1603 98.4766 82.8306C100.958 91.501 115.654 94.8999 131.302 90.4223Z" fill="#FFAB19"/>
<path opacity="0.5" d="M262.112 294.785C346.48 295.563 321.442 164.928 274.865 115.784C202.937 39.8134 166.935 119.905 95.8634 102.954C27.6688 86.702 23.6253 244.864 83.1109 281.955C141.508 318.346 156.515 293.774 262.112 294.785Z" fill="#FFAB19"/>
<path d="M50.8416 122.938C51.6969 122.704 52.3967 122.005 52.63 121.149L53.1743 119.205C53.4076 118.272 54.7295 118.272 54.9628 119.205L55.5071 121.149C55.7404 122.005 56.4402 122.704 57.2955 122.938L59.2395 123.482C60.1726 123.715 60.1726 125.037 59.2395 125.27L57.2955 125.815C56.4402 126.048 55.7404 126.748 55.5071 127.603L54.9628 129.547C54.7295 130.48 53.4076 130.48 53.1743 129.547L52.63 127.603C52.3967 126.748 51.6969 126.048 50.8416 125.815L48.8976 125.27C47.9645 125.037 47.9645 123.715 48.8976 123.482L50.8416 122.938Z" fill="#FFAB19"/>
<path d="M77.4351 170.448C78.6015 170.137 79.4568 169.204 79.7678 168.116L80.4677 165.472C80.7787 164.228 82.5672 164.228 82.8782 165.472L83.578 168.116C83.8891 169.282 84.8222 170.137 85.9108 170.448L88.5546 171.148C89.7987 171.459 89.7987 173.248 88.5546 173.559L85.9108 174.259C84.7444 174.57 83.8891 175.503 83.578 176.591L82.8782 179.235C82.5672 180.479 80.7787 180.479 80.4677 179.235L79.7678 176.591C79.4568 175.425 78.5237 174.57 77.4351 174.259L74.7913 173.559C73.5471 173.248 73.5471 171.459 74.7913 171.148L77.4351 170.448Z" fill="#FFAB19"/>
<path d="M283.575 223.247C284.508 223.013 285.285 222.236 285.596 221.225L286.218 219.048C286.529 218.037 288.007 218.037 288.24 219.048L288.862 221.225C289.095 222.158 289.873 222.936 290.884 223.247L293.061 223.869C294.072 224.18 294.072 225.657 293.061 225.89L290.884 226.513C289.951 226.746 289.173 227.523 288.862 228.534L288.24 230.711C287.929 231.722 286.452 231.722 286.218 230.711L285.596 228.534C285.363 227.601 284.585 226.824 283.575 226.513L281.397 225.89C280.386 225.579 280.386 224.102 281.397 223.869L283.575 223.247Z" fill="#FFAB19"/>
<path d="M64.372 216.482C64.9941 216.326 65.4607 215.86 65.6162 215.237L66.005 213.838C66.1605 213.138 67.1714 213.138 67.3269 213.838L67.7157 215.237C67.8712 215.86 68.3378 216.326 68.9598 216.482L70.3595 216.87C71.0593 217.026 71.0593 218.037 70.3595 218.192L68.9598 218.581C68.3378 218.737 67.8712 219.203 67.7157 219.825L67.3269 221.225C67.1714 221.925 66.1605 221.925 66.005 221.225L65.6162 219.825C65.4607 219.203 64.9941 218.737 64.372 218.581L62.9724 218.192C62.2726 218.037 62.2726 217.026 62.9724 216.87L64.372 216.482Z" fill="#FFAB19"/>
<path d="M302.624 272.468C303.246 272.313 303.712 271.846 303.868 271.224L304.257 269.824C304.412 269.125 305.423 269.125 305.579 269.824L305.967 271.224C306.123 271.846 306.589 272.313 307.212 272.468L308.611 272.857C309.311 273.012 309.311 274.023 308.611 274.179L307.212 274.568C306.589 274.723 306.123 275.19 305.967 275.812L305.579 277.211C305.423 277.911 304.412 277.911 304.257 277.211L303.868 275.812C303.712 275.19 303.246 274.723 302.624 274.568L301.224 274.179C300.524 274.023 300.524 273.012 301.224 272.857L302.624 272.468Z" fill="#FFAB19"/>
<path d="M229.142 210.261V88.6462C229.142 62.2082 207.758 40.8245 181.398 40.8245C155.038 40.8245 133.654 62.2082 133.654 88.5685V210.183L229.142 210.261ZM155.193 210.261V88.5685C155.193 74.1053 166.935 62.3637 181.398 62.3637C195.861 62.3637 207.603 74.1053 207.603 88.5685V210.261" fill="#CCCCCC"/>
<path d="M181.396 282.188C224.642 282.188 259.7 247.131 259.7 203.885C259.7 160.639 224.642 125.582 181.396 125.582C138.151 125.582 103.093 160.639 103.093 203.885C103.093 247.131 138.151 282.188 181.396 282.188Z" fill="#4280D7"/>
<path d="M181.396 275.656C221.034 275.656 253.167 243.523 253.167 203.885C253.167 164.247 221.034 132.113 181.396 132.113C141.757 132.113 109.624 164.247 109.624 203.885C109.624 243.523 141.757 275.656 181.396 275.656Z" fill="#4D97FF"/>
<path d="M181.397 235.299C198.747 235.299 212.812 221.234 212.812 203.885C212.812 186.535 198.747 172.47 181.397 172.47C164.047 172.47 149.982 186.535 149.982 203.885C149.982 221.234 164.047 235.299 181.397 235.299Z" stroke="#4280D7" stroke-width="2" stroke-miterlimit="10"/>
<path d="M181.395 172.47V163.45" stroke="#4280D7" stroke-width="2" stroke-miterlimit="10"/>
<path d="M181.395 235.299V244.241" stroke="#4280D7" stroke-width="2" stroke-miterlimit="10"/>
<path d="M165.69 176.669L161.18 168.893" stroke="#4280D7" stroke-width="2" stroke-miterlimit="10"/>
<path d="M197.104 231.023L201.536 238.799" stroke="#4280D7" stroke-width="2" stroke-miterlimit="10"/>
<path d="M197.104 176.668L201.536 168.892" stroke="#4280D7" stroke-width="2" stroke-miterlimit="10"/>
<path d="M165.69 231.022L161.18 238.797" stroke="#4280D7" stroke-width="2" stroke-miterlimit="10"/>
<path d="M212.731 203.885H221.751" stroke="#4280D7" stroke-width="2" stroke-miterlimit="10"/>
<path d="M149.979 203.885H140.959" stroke="#4280D7" stroke-width="2" stroke-miterlimit="10"/>
<path d="M208.532 219.592L216.308 224.024" stroke="#4280D7" stroke-width="2" stroke-miterlimit="10"/>
<path d="M154.18 188.177L146.404 183.667" stroke="#4280D7" stroke-width="2" stroke-miterlimit="10"/>
<path d="M154.18 219.592L146.404 224.024" stroke="#4280D7" stroke-width="2" stroke-miterlimit="10"/>
<path d="M208.532 188.177L216.308 183.667" stroke="#4280D7" stroke-width="2" stroke-miterlimit="10"/>
<path d="M203.558 226.046L209.934 232.422" stroke="#4280D7" stroke-width="2" stroke-miterlimit="10"/>
<path d="M159.156 181.646L152.78 175.347" stroke="#4280D7" stroke-width="2" stroke-miterlimit="10"/>
<path d="M159.156 226.046L152.779 232.422" stroke="#4280D7" stroke-width="2" stroke-miterlimit="10"/>
<path d="M203.558 181.645L209.934 175.347" stroke="#4280D7" stroke-width="2" stroke-miterlimit="10"/>
<path d="M150.992 195.72L142.36 193.387" stroke="#4280D7" stroke-width="2" stroke-miterlimit="10"/>
<path d="M211.721 211.972L220.352 214.305" stroke="#4280D7" stroke-width="2" stroke-miterlimit="10"/>
<path d="M211.721 195.72L220.352 193.387" stroke="#4280D7" stroke-width="2" stroke-miterlimit="10"/>
<path d="M150.992 211.972L142.361 214.304" stroke="#4280D7" stroke-width="2" stroke-miterlimit="10"/>
<path d="M173.229 173.558L170.896 164.849" stroke="#4280D7" stroke-width="2" stroke-miterlimit="10"/>
<path d="M189.478 234.211L191.811 242.842" stroke="#4280D7" stroke-width="2" stroke-miterlimit="10"/>
<path d="M189.478 173.559L191.811 164.85" stroke="#4280D7" stroke-width="2" stroke-miterlimit="10"/>
<path d="M173.229 234.21L170.896 242.842" stroke="#4280D7" stroke-width="2" stroke-miterlimit="10"/>
<path d="M181.394 244.32C203.726 244.32 221.829 226.216 221.829 203.885C221.829 181.553 203.726 163.45 181.394 163.45C159.063 163.45 140.96 181.553 140.96 203.885C140.96 226.216 159.063 244.32 181.394 244.32Z" fill="#3373CC"/>
<path d="M181.63 235.299C198.851 235.299 212.812 221.339 212.812 204.118C212.812 186.897 198.851 172.937 181.63 172.937C164.409 172.937 150.449 186.897 150.449 204.118C150.449 221.339 164.409 235.299 181.63 235.299Z" fill="#4D97FF"/>
<path d="M151.768 131.414C151.768 131.414 150.835 96.189 151.846 84.2141C152.624 74.4943 161.333 58.2427 180.695 58.2427C202.234 58.2427 209.077 73.7944 209.932 81.1815C210.865 88.6464 210.554 131.181 210.554 131.181L207.522 130.014V87.0912C207.522 87.0912 206.588 63.297 181.317 62.3639C181.317 62.3639 158.456 61.5863 155.267 85.9248L155.112 130.014L151.768 131.414Z" fill="#B3B3B3"/>
<path d="M181.395 136.468V145.846" stroke="white" stroke-opacity="0.8" stroke-width="4" stroke-miterlimit="10" stroke-linecap="round"/>
<path d="M181.395 261.921V271.225" stroke="white" stroke-opacity="0.8" stroke-width="4" stroke-miterlimit="10" stroke-linecap="round"/>
<path d="M113.98 203.883H123.358" stroke="white" stroke-opacity="0.8" stroke-width="4" stroke-miterlimit="10" stroke-linecap="round"/>
<path d="M239.433 203.883H248.737" stroke="white" stroke-opacity="0.8" stroke-width="4" stroke-miterlimit="10" stroke-linecap="round"/>
<path d="M133.693 156.183L140.339 162.829" stroke="white" stroke-opacity="0.8" stroke-width="4" stroke-miterlimit="10" stroke-linecap="round"/>
<path d="M222.378 244.864L229.024 251.51" stroke="white" stroke-opacity="0.8" stroke-width="4" stroke-miterlimit="10" stroke-linecap="round"/>
<path d="M229.024 156.183L222.378 162.829" stroke="white" stroke-opacity="0.8" stroke-width="4" stroke-miterlimit="10" stroke-linecap="round"/>
<path d="M140.339 244.864L133.693 251.51" stroke="white" stroke-opacity="0.8" stroke-width="4" stroke-miterlimit="10" stroke-linecap="round"/>
<path d="M123.211 170.434L128.454 173.462" stroke="white" stroke-opacity="0.8" stroke-width="4" stroke-miterlimit="10" stroke-linecap="round"/>
<path d="M234.263 234.231L239.579 237.332" stroke="white" stroke-opacity="0.8" stroke-width="4" stroke-miterlimit="10" stroke-linecap="round"/>
<path d="M239.579 170.434L234.263 173.462" stroke="white" stroke-opacity="0.8" stroke-width="4" stroke-miterlimit="10" stroke-linecap="round"/>
<path d="M128.454 234.231L123.211 237.332" stroke="white" stroke-opacity="0.8" stroke-width="4" stroke-miterlimit="10" stroke-linecap="round"/>
<path d="M214.918 261.995L211.89 256.678" stroke="white" stroke-opacity="0.8" stroke-width="4" stroke-miterlimit="10" stroke-linecap="round"/>
<path d="M150.828 151.015L147.8 145.698" stroke="white" stroke-opacity="0.8" stroke-width="4" stroke-miterlimit="10" stroke-linecap="round"/>
<path d="M147.8 261.995L150.828 256.678" stroke="white" stroke-opacity="0.8" stroke-width="4" stroke-miterlimit="10" stroke-linecap="round"/>
<path d="M211.89 151.015L214.918 145.698" stroke="white" stroke-opacity="0.8" stroke-width="4" stroke-miterlimit="10" stroke-linecap="round"/>
<path d="M198.6 268.714L197.05 262.807" stroke="white" stroke-opacity="0.8" stroke-width="4" stroke-miterlimit="10" stroke-linecap="round"/>
<path d="M165.668 144.886L164.117 138.979" stroke="white" stroke-opacity="0.8" stroke-width="4" stroke-miterlimit="10" stroke-linecap="round"/>
<path d="M164.117 268.714L165.668 262.807" stroke="white" stroke-opacity="0.8" stroke-width="4" stroke-miterlimit="10" stroke-linecap="round"/>
<path d="M197.05 144.886L198.6 138.979" stroke="white" stroke-opacity="0.8" stroke-width="4" stroke-miterlimit="10" stroke-linecap="round"/>
<path d="M246.153 221.309L240.246 219.759" stroke="white" stroke-opacity="0.8" stroke-width="4" stroke-miterlimit="10" stroke-linecap="round"/>
<path d="M122.472 187.934L116.565 186.383" stroke="white" stroke-opacity="0.8" stroke-width="4" stroke-miterlimit="10" stroke-linecap="round"/>
<path d="M116.565 221.309L122.472 219.759" stroke="white" stroke-opacity="0.8" stroke-width="4" stroke-miterlimit="10" stroke-linecap="round"/>
<path d="M240.246 187.934L246.153 186.383" stroke="white" stroke-opacity="0.8" stroke-width="4" stroke-miterlimit="10" stroke-linecap="round"/>
</svg>

<svg width="360" height="360" fill="none" xmlns="http://www.w3.org/2000/svg"><path opacity=".5" d="M211.956 314.769c0 6.221 8.087 4.432 18.04 4.432s18.04 1.789 18.04-4.432-9.331-10.808-19.284-10.808-16.796 4.587-16.796 10.808ZM131.302 90.422c15.648-4.477 26.322-15.136 23.841-23.806-2.481-8.67-17.178-12.07-32.826-7.592-15.647 4.478-26.321 15.136-23.84 23.807 2.481 8.67 17.177 12.069 32.825 7.591Z" fill="#FFAB19"/><path opacity=".5" d="M262.112 294.785c84.368.778 59.33-129.857 12.753-179.001-71.928-75.97-107.93 4.121-179.002-12.83-68.194-16.252-72.238 141.91-12.752 179.001 58.397 36.391 73.404 11.819 179.001 12.83Z" fill="#FFAB19"/><path d="M50.842 122.938a2.59 2.59 0 0 0 1.788-1.789l.544-1.944c.234-.933 1.556-.933 1.789 0l.544 1.944a2.59 2.59 0 0 0 1.788 1.789l1.944.544c.934.233.934 1.555 0 1.788l-1.944.545a2.588 2.588 0 0 0-1.788 1.788l-.544 1.944c-.233.933-1.555.933-1.789 0l-.544-1.944a2.588 2.588 0 0 0-1.788-1.788l-1.944-.545c-.934-.233-.934-1.555 0-1.788l1.944-.544ZM77.435 170.448c1.166-.311 2.022-1.244 2.333-2.332l.7-2.644c.31-1.244 2.1-1.244 2.41 0l.7 2.644c.311 1.166 1.244 2.021 2.333 2.332l2.644.7c1.244.311 1.244 2.1 0 2.411l-2.644.7c-1.167.311-2.022 1.244-2.333 2.332l-.7 2.644c-.31 1.244-2.1 1.244-2.41 0l-.7-2.644c-.311-1.166-1.244-2.021-2.333-2.332l-2.644-.7c-1.244-.311-1.244-2.1 0-2.411l2.644-.7ZM283.575 223.247c.933-.234 1.71-1.011 2.021-2.022l.622-2.177c.311-1.011 1.789-1.011 2.022 0l.622 2.177c.233.933 1.011 1.711 2.022 2.022l2.177.622c1.011.311 1.011 1.788 0 2.021l-2.177.623c-.933.233-1.711 1.01-2.022 2.021l-.622 2.177c-.311 1.011-1.788 1.011-2.022 0l-.622-2.177c-.233-.933-1.011-1.71-2.021-2.021l-2.178-.623c-1.011-.311-1.011-1.788 0-2.021l2.178-.622ZM64.372 216.482a1.688 1.688 0 0 0 1.244-1.245l.389-1.399c.156-.7 1.166-.7 1.322 0l.389 1.399a1.688 1.688 0 0 0 1.244 1.245l1.4.388c.7.156.7 1.167 0 1.322l-1.4.389a1.688 1.688 0 0 0-1.244 1.244l-.39 1.4c-.155.7-1.165.7-1.321 0l-.389-1.4a1.688 1.688 0 0 0-1.244-1.244l-1.4-.389c-.7-.155-.7-1.166 0-1.322l1.4-.388ZM302.624 272.468a1.688 1.688 0 0 0 1.244-1.244l.389-1.4c.155-.699 1.166-.699 1.322 0l.388 1.4a1.687 1.687 0 0 0 1.245 1.244l1.399.389c.7.155.7 1.166 0 1.322l-1.399.389a1.687 1.687 0 0 0-1.245 1.244l-.388 1.399c-.156.7-1.167.7-1.322 0l-.389-1.399a1.688 1.688 0 0 0-1.244-1.244l-1.4-.389c-.7-.156-.7-1.167 0-1.322l1.4-.389Z" fill="#FFAB19"/><path d="M229.142 210.261V88.646c0-26.438-21.384-47.822-47.744-47.822s-47.744 21.384-47.744 47.745v121.614l95.488.078Zm-73.949 0V88.569c0-14.464 11.742-26.205 26.205-26.205 14.463 0 26.205 11.741 26.205 26.205V210.26" fill="#CCC"/><path d="M181.396 282.188c43.246 0 78.304-35.057 78.304-78.303 0-43.246-35.058-78.303-78.304-78.303-43.245 0-78.303 35.057-78.303 78.303 0 43.246 35.058 78.303 78.303 78.303Z" fill="#4280D7"/><path d="M181.396 275.656c39.638 0 71.771-32.133 71.771-71.771s-32.133-71.772-71.771-71.772c-39.639 0-71.772 32.134-71.772 71.772 0 39.638 32.133 71.771 71.772 71.771Z" fill="#4D97FF"/><path d="M181.397 235.299c17.35 0 31.415-14.065 31.415-31.414 0-17.35-14.065-31.415-31.415-31.415s-31.415 14.065-31.415 31.415c0 17.349 14.065 31.414 31.415 31.414ZM181.395 172.47v-9.02M181.395 235.299v8.942M165.69 176.669l-4.51-7.776M197.104 231.023l4.432 7.776M197.104 176.668l4.432-7.776M165.69 231.022l-4.51 7.775M212.731 203.885h9.02M149.979 203.885h-9.02M208.532 219.592l7.776 4.432M154.18 188.177l-7.776-4.51M154.18 219.592l-7.776 4.432M208.532 188.177l7.776-4.51M203.558 226.046l6.376 6.376M159.156 181.646l-6.376-6.299M159.156 226.046l-6.377 6.376M203.558 181.645l6.376-6.298M150.992 195.72l-8.632-2.333M211.721 211.972l8.631 2.333M211.721 195.72l8.631-2.333M150.992 211.972l-8.631 2.332M173.229 173.558l-2.333-8.709M189.478 234.211l2.333 8.631M189.478 173.559l2.333-8.709M173.229 234.21l-2.333 8.632" stroke="#4280D7" stroke-width="2" stroke-miterlimit="10"/><path d="M181.394 244.32c22.332 0 40.435-18.104 40.435-40.435 0-22.332-18.103-40.435-40.435-40.435-22.331 0-40.434 18.103-40.434 40.435 0 22.331 18.103 40.435 40.434 40.435Z" fill="#3373CC"/><path d="M181.63 235.299c17.221 0 31.182-13.96 31.182-31.181s-13.961-31.181-31.182-31.181c-17.221 0-31.181 13.96-31.181 31.181s13.96 31.181 31.181 31.181Z" fill="#4D97FF"/><path d="M151.768 131.414s-.933-35.225.078-47.2c.778-9.72 9.487-25.971 28.849-25.971 21.539 0 28.382 15.551 29.237 22.938.933 7.465.622 50 .622 50l-3.032-1.167V87.091s-.934-23.794-26.205-24.727c0 0-22.861-.778-26.05 23.56l-.155 44.09-3.344 1.4Z" fill="#B3B3B3"/><path d="M181.395 136.468v9.378M181.395 261.921v9.304M113.98 203.883h9.378M239.433 203.883h9.304M133.693 156.183l6.646 6.646M222.378 244.864l6.646 6.646M229.024 156.183l-6.646 6.646M140.339 244.864l-6.646 6.646M123.211 170.434l5.243 3.028M234.263 234.231l5.316 3.101M239.579 170.434l-5.316 3.028M128.454 234.231l-5.243 3.101M214.918 261.995l-3.028-5.317M150.828 151.015l-3.028-5.317M147.8 261.995l3.028-5.317M211.89 151.015l3.028-5.317M198.6 268.714l-1.55-5.907M165.668 144.886l-1.551-5.907M164.117 268.714l1.551-5.907M197.05 144.886l1.55-5.907M246.153 221.309l-5.907-1.55M122.472 187.934l-5.907-1.551M116.565 221.309l5.907-1.55M240.246 187.934l5.907-1.551" stroke="#fff" stroke-opacity=".8" stroke-width="4" stroke-miterlimit="10" stroke-linecap="round"/></svg>
